resources/svg/chatbot-o.svg

<svg xmlns="http://www.w3.org/2000/svg" viewBox="0 0 15 15" fill="none"><path d="M8.99996 2.49988L8.99996 1.99988L8.99996 2.49988ZM5.99995 2.4999L5.99995 2.9999L5.99995 2.4999ZM12.8556 11.9222L12.5051 11.5656L12.3012 11.7661L12.3705 12.0434L12.8556 11.9222ZM13.5 14.4999L13.3788 14.985C13.5492 15.0276 13.7294 14.9776 13.8536 14.8534C13.9778 14.7293 14.0277 14.549 13.9851 14.3786L13.5 14.4999ZM9.50005 13.5L9.14649 13.1464L8.52204 13.7709L9.37879 13.985L9.50005 13.5ZM9.52482 13.4752L9.87838 13.8287C10.0275 13.6796 10.067 13.453 9.97722 13.2623C9.88743 13.0715 9.68761 12.9575 9.4777 12.9774L9.52482 13.4752ZM0.5 7.99988L0 7.99988L0.5 7.99988ZM7 0V2.5H8V0H7ZM8.99996 1.99988L5.99994 1.9999L5.99995 2.9999L8.99997 2.99988L8.99996 1.99988ZM15 7.99988C15 4.68615 12.3137 1.99985 8.99996 1.99988L8.99997 2.99988C11.7614 2.99985 14 5.23844 14 7.99988H15ZM13.2061 12.2787C14.3128 11.1908 15 9.67513 15 7.99988H14C14 9.39612 13.4284 10.6579 12.5051 11.5656L13.2061 12.2787ZM13.9851 14.3786L13.3407 11.8009L12.3705 12.0434L13.015 14.6212L13.9851 14.3786ZM9.37879 13.985L13.3788 14.985L13.6213 14.0148L9.62131 13.0149L9.37879 13.985ZM9.17127 13.1216L9.14649 13.1464L9.8536 13.8535L9.87838 13.8287L9.17127 13.1216ZM9.00001 13.9999C9.19278 13.9999 9.38357 13.9908 9.57194 13.973L9.4777 12.9774C9.32061 12.9923 9.16127 12.9999 9.00001 12.9999V13.9999ZM5.99999 13.9999H9.00001V12.9999H5.99999V13.9999ZM0 7.99988C-9.17912e-06 11.3136 2.68628 13.9999 5.99999 13.9999V12.9999C3.23857 12.9999 0.999992 10.7613 1 7.99988L0 7.99988ZM5.99994 1.9999C2.68626 1.99993 9.17912e-06 4.6862 0 7.99988L1 7.99988C1.00001 5.23849 3.23855 2.99993 5.99995 2.9999L5.99994 1.9999ZM7.5 8C6.67157 8 6 7.32843 6 6.5H5C5 7.88071 6.11929 9 7.5 9V8ZM9 6.5C9 7.32843 8.32843 8 7.5 8V9C8.88071 9 10 7.88071 10 6.5H9ZM7.5 5C8.32843 5 9 5.67157 9 6.5H10C10 5.11929 8.88071 4 7.5 4V5ZM7.5 4C6.11929 4 5 5.11929 5 6.5H6C6 5.67157 6.67157 5 7.5 5V4ZM7.49999 12C8.56368 12 9.54241 11.6303 10.3127 11.0128L9.68724 10.2326C9.08795 10.713 8.32817 11 7.49999 11V12ZM4.68727 11.0128C5.45757 11.6303 6.43629 12 7.49999 12V11C6.6718 11 5.91202 10.713 5.31273 10.2326L4.68727 11.0128Z" fill="black"/></svg>

<svg xmlns="http://www.w3.org/2000/svg" viewBox="0 0 15 15" fill="none"><path d="M9 2.5V2v.5zm-3 0V3v-.5zm6.856 9.422l-.35-.356-.205.2.07.277.485-.12zM13.5 14.5l-.121.485a.5.5 0 00.606-.606l-.485.12zm-4-1l-.354-.354-.624.625.857.214.121-.485zm.025-.025l.353.354a.5.5 0 00-.4-.852l.047.498zM.5 8H0h.5zM7 0v2.5h1V0H7zm2 2H6v1h3V2zm6 6a6 6 0 00-6-6v1a5 5 0 015 5h1zm-1.794 4.279A5.983 5.983 0 0015 7.999h-1a4.983 4.983 0 01-1.495 3.567l.701.713zm.78 2.1L13.34 11.8l-.97.242.644 2.578.97-.242zm-4.607-.394l4 1 .242-.97-4-1-.242.97zm-.208-.863l-.025.024.708.707.024-.024-.707-.707zM9 14c.193 0 .384-.01.572-.027l-.094-.996A5.058 5.058 0 019 13v1zm-3 0h3v-1H6v1zM0 8a6 6 0 006 6v-1a5 5 0 01-5-5H0zm6-6a6 6 0 00-6 6h1a5 5 0 015-5V2zm1.5 6A1.5 1.5 0 016 6.5H5A2.5 2.5 0 007.5 9V8zM9 6.5A1.5 1.5 0 017.5 8v1A2.5 2.5 0 0010 6.5H9zM7.5 5A1.5 1.5 0 019 6.5h1A2.5 2.5 0 007.5 4v1zm0-1A2.5 2.5 0 005 6.5h1A1.5 1.5 0 017.5 5V4zm0 8c1.064 0 2.042-.37 2.813-.987l-.626-.78c-.6.48-1.359.767-2.187.767v1zm-2.813-.987c.77.617 1.75.987 2.813.987v-1a3.483 3.483 0 01-2.187-.767l-.626.78z" fill="currentColor"/></svg>
